resources/cursor-click.svg

<svg xmlns="http://www.w3.org/2000/svg" width="24" height="24" fill="#f4f4f7" viewBox="0 0 24 24"><path stroke="#555e70" stroke-linecap="round" stroke-linejoin="round" stroke-width="2" d="M14.9998 15L12.9998 20L8.99983 9L19.9998 13L14.9998 15ZM14.9998 15L19.9998 20M7.18806 2.23853L7.96452 5.1363M5.13606 7.96472L2.23828 7.18826M13.9495 4.05029L11.8282 6.17161M6.17146 11.8284L4.05014 13.9497"/></svg>

<svg width="24" height="24" fill="#f4f4f7">
  <path stroke="#555e70" stroke-linecap="round" stroke-linejoin="round" stroke-width="2" d="m15 15-2 5L9 9l11 4-5 2Zm0 0 5 5M7.188 2.239l.777 2.897M5.136 7.965l-2.898-.777M13.95 4.05l-2.122 2.122m-5.657 5.656-2.12 2.122"/>
</svg>
